app/views/coronavirus_landing_page/components/landing_page/_stay-home-logo.svg

<svg class="covid__logos" width="300" height="45" viewBox="0 0 300 45" fill="none" xmlns="http://www.w3.org/2000/svg">
  <g>
    <path d="M15.1823 4.08512C14.1484 3.55753 12.6887 3.13922 11.5217 3.13922C10.1152 3.13922 9.05462 3.77233 9.05462 5.13654C9.05462 8.47545 16.3531 6.92659 16.3531 13.4499C16.3531 16.9207 13.5668 19.0273 9.8795 19.0273C7.62532 19.0273 5.68665 18.4997 4.89217 18.2661L5.13165 14.6898C6.43171 15.191 7.5721 15.8203 9.19146 15.8203C10.5713 15.8203 11.898 15.1344 11.898 13.6383C11.898 10.0884 4.60327 11.8219 4.60327 5.27221C4.60327 4.71823 4.81615 0.0377197 11.0237 0.0377197C12.7229 0.0377197 13.7835 0.327896 15.3762 0.670832L15.1823 4.08512Z" fill="white"/>
    <path d="M21.9297 3.66299H17.8965V0.34668H30.3154V3.66299H26.2784V18.7107H21.9297V3.66299Z" fill="white"/>
    <path d="M40.9856 14.6068H35.1772L33.9038 18.7107H29.7109L35.8653 0.34668H40.6397L46.5812 18.707H42.1222L40.9856 14.6068ZM38.2259 3.87402H38.1727L35.9717 11.5015H40.1379L38.2259 3.87402Z" fill="white"/>
    <path d="M51.2607 11.6862L45.6348 0.350448H50.6221L53.5985 7.45036L56.3583 0.34668H61.2392L55.6132 11.7616V18.707H51.2607V11.6862Z" fill="white"/>
    <path d="M8.86087 37.0069H4.35251V44.6344H0V26.2742H4.35251V33.5851H8.86467V26.2742H13.2172V44.6344H8.86087V37.0069Z" fill="white"/>
    <path d="M23.4846 25.9614C28.8179 25.9614 31.3648 30.0654 31.3648 35.4581C31.3648 40.8509 28.8179 44.9548 23.4846 44.9548C18.1514 44.9548 15.6311 40.8509 15.6311 35.4581C15.6311 30.0654 18.1514 25.9614 23.4846 25.9614ZM23.4846 41.8495C26.0049 41.8495 26.9058 38.9817 26.9058 35.4581C26.9058 31.9345 26.0049 29.0667 23.4846 29.0667C20.9644 29.0667 20.09 31.9345 20.09 35.4581C20.0862 38.9817 20.9644 41.8495 23.4846 41.8495Z" fill="white"/>
    <path d="M48.638 30.1143H48.5848L44.4185 44.6344H41.5523L37.5496 30.1143H37.4963V44.6344H33.5164V26.2742H40.0698L43.0691 38.0847H43.1223L46.361 26.2742H52.6218V44.6344H48.6418V30.1143H48.638Z" fill="white"/>
    <path d="M55.4612 26.2742H66.1543V29.485H59.654V33.5889H65.835V36.7997H59.654V41.4274H66.4736V44.6382H55.4612V26.2742Z" fill="white"/>
    <path d="M104.179 0.34668H110.105C114.062 0.34668 116.453 2.21587 116.453 6.19544C116.453 9.33085 114.701 12.0178 110.634 12.0178H108.535V18.7296H104.179V0.34668ZM109.759 8.79949C111.113 8.79949 112.097 7.8762 112.097 6.16529C112.097 4.34886 111.246 3.55747 109.52 3.55747H108.376V8.79949H109.759Z" fill="white"/>
    <path d="M117.993 0.34668H124.793C127.85 0.34668 130.454 1.68828 130.454 5.08749C130.454 5.8525 130.347 8.87863 126.763 9.59088V9.64364C128.116 9.80192 128.648 10.5406 129.34 12.7263L131.252 18.7296H126.683L125.25 13.8041C124.531 11.3018 123.946 11.3018 122.353 11.3018V18.7296H117.993V0.34668ZM122.19 8.19276H123.547C125.219 8.19276 126.097 7.08858 126.097 5.76959C126.097 5.00458 125.858 3.45195 123.52 3.45195H122.193V8.19276H122.19Z" fill="white"/>
    <path d="M139.565 0.0301514C144.906 0.0301514 147.457 4.13785 147.457 9.53815C147.457 14.9385 144.906 19.0461 139.565 19.0461C134.225 19.0461 131.7 14.9385 131.7 9.53815C131.7 4.13785 134.225 0.0301514 139.565 0.0301514ZM139.565 15.9371C142.089 15.9371 142.994 13.0655 142.994 9.53815C142.994 6.00704 142.089 3.13919 139.565 3.13919C137.041 3.13919 136.163 6.01081 136.163 9.53815C136.167 13.0655 137.041 15.9371 139.565 15.9371Z" fill="white"/>
    <path d="M151.623 3.66299H147.586V0.34668H160.02V3.66675H155.983V18.7296H151.627V3.66299H151.623Z" fill="white"/>
    <path d="M161.799 0.34668H172.508V3.56123H166V7.66893H172.192V10.8835H166V15.5188H172.827V18.7333H161.803V0.34668H161.799Z" fill="white"/>
    <path d="M186.85 4.50715C186.185 4.13783 185.071 3.45196 183.079 3.45196C180.156 3.45196 178.297 5.79598 178.297 9.50798C178.297 13.0919 180.395 15.515 183.159 15.515C185.284 15.515 186.534 14.7236 186.956 14.539L187.116 18.3829C186.371 18.6203 184.831 19.0424 182.467 19.0424C177.392 19.0424 173.834 15.2776 173.834 9.45522C173.834 2.71333 178.403 0.0263672 182.178 0.0263672C184.942 0.0263672 186.348 0.6331 187.067 0.923277L186.85 4.50715Z" fill="white"/>
    <path d="M192.43 3.66299H188.393V0.34668H200.827V3.66675H196.79V18.7296H192.434V3.66299H192.43Z" fill="white"/>
    <path d="M108.224 29.6018H104.179V26.278H116.624V29.6018H112.584V44.6834H108.224V29.6018Z" fill="white"/>
    <path d="M127.595 37.0371H123.075V44.6834H118.715V26.278H123.075V33.6077H127.595V26.278H131.955V44.6834H127.595V37.0371Z" fill="white"/>
    <path d="M135.076 26.278H145.796V29.4963H139.28V33.6077H145.477V36.8261H139.28V41.4651H146.115V44.6834H135.076V26.278Z" fill="white"/>
    <path d="M154.786 26.278H159.891L165.289 39.0382H165.342V26.278H169.174V44.6834H164.015L158.671 31.3692H158.618V44.6834H154.786V26.278Z" fill="white"/>
    <path d="M180.912 37.0371H176.393V44.6834H172.032V26.278H176.393V33.6077H180.912V26.278H185.272V44.6834H180.912V37.0371Z" fill="white"/>
    <path d="M198.501 30.0239C197.463 29.4963 196 29.0742 194.833 29.0742C193.423 29.0742 192.358 29.7074 192.358 31.0791C192.358 34.4293 199.672 32.8729 199.672 39.4113C199.672 42.8897 196.878 45 193.183 45C190.921 45 188.979 44.4725 188.184 44.235L188.424 40.6512C189.728 41.1524 190.872 41.7855 192.491 41.7855C193.875 41.7855 195.205 41.0996 195.205 39.596C195.205 36.0385 187.892 37.7758 187.892 31.211C187.892 30.657 188.104 25.9652 194.327 25.9652C196.03 25.9652 197.095 26.2554 198.687 26.5983L198.501 30.0239Z" fill="white"/>
    <path d="M89.3462 22.4265L80.5195 11.8934V32.9557L89.3462 22.4265Z" fill="#FFF500"/>
    <path d="M249.583 4.06624C248.545 3.53865 247.082 3.11657 245.911 3.11657C244.501 3.11657 243.436 3.74969 243.436 5.12143C243.436 8.47542 250.758 6.91525 250.758 13.4612C250.758 16.9471 247.964 19.0574 244.261 19.0574C242 19.0574 240.053 18.5299 239.255 18.2924L239.494 14.701C240.798 15.2022 241.942 15.8354 243.569 15.8354C244.953 15.8354 246.287 15.1495 246.287 13.6458C246.287 10.0808 238.966 11.8256 238.966 5.25333C238.966 4.69935 239.179 0 245.409 0C247.112 0 248.177 0.290177 249.777 0.633113L249.583 4.06624Z" fill="white"/>
    <path d="M263.26 14.6219H257.429L256.152 18.7409H251.944L258.121 0.316528H262.914L268.879 18.7409H264.405L263.26 14.6219ZM260.489 3.85518H260.436L258.227 11.5091H262.409L260.489 3.85518Z" fill="white"/>
    <path d="M267.613 0.316528H272.3L275.577 13.7513H275.63L278.986 0.316528H283.461L277.838 18.7409H273.151L267.613 0.316528Z" fill="white"/>
    <path d="M285.973 0.316528H296.704V3.53485H290.181V7.65385H296.385V10.8759H290.181V15.5225H297.024V18.7409H285.973V0.316528Z" fill="white"/>
    <path d="M237.902 26.2478H242.269V41.3445H248.42V44.6721H237.902V26.2478Z" fill="white"/>
    <path d="M250.72 26.2478H255.087V44.6721H250.72V26.2478Z" fill="white"/>
    <path d="M257.216 26.2478H261.903L265.18 39.6826H265.233L268.59 26.2478H273.064L267.445 44.6721H262.758L257.216 26.2478Z" fill="white"/>
    <path d="M275.211 26.2478H285.943V29.4661H279.419V33.5851H285.623V36.8072H279.419V41.4538H286.262V44.6721H275.211V26.2478Z" fill="white"/>
    <path d="M298.829 29.9937C297.792 29.4661 296.328 29.0441 295.153 29.0441C293.743 29.0441 292.679 29.6772 292.679 31.0489C292.679 34.4029 300 32.8427 300 39.3887C300 42.8746 297.206 44.9849 293.504 44.9849C291.242 44.9849 289.296 44.4573 288.497 44.2199L288.737 40.6285C290.041 41.1297 291.185 41.7628 292.812 41.7628C294.195 41.7628 295.526 41.077 295.526 39.5733C295.526 36.0083 288.205 37.7531 288.205 31.1808C288.205 30.6268 288.417 25.9275 294.648 25.9275C296.351 25.9275 297.415 26.2177 299.016 26.5606L298.829 29.9937Z" fill="white"/>
    <path d="M223.609 22.4265L214.778 11.8934V32.9557L223.609 22.4265Z" fill="#FFF500"/>
  </g>
</svg>

<svg class="covid__logos" width="300" height="45" viewBox="0 0 300 45" fill="none" xmlns="http://www.w3.org/2000/svg"><path d="M15.182 4.085c-1.034-.528-2.494-.946-3.661-.946-1.406 0-2.467.633-2.467 1.997 0 3.339 7.298 1.79 7.298 8.313 0 3.471-2.786 5.577-6.474 5.577-2.254 0-4.193-.528-4.987-.761l.239-3.576c1.3.501 2.44 1.13 4.06 1.13 1.38 0 2.707-.686 2.707-2.182 0-3.55-7.295-1.816-7.295-8.366 0-.554.213-5.234 6.42-5.234 1.699 0 2.76.29 4.353.633l-.194 3.414zm6.748-.422h-4.033V.347h12.419v3.316h-4.037v15.048H21.93V3.663zm19.056 10.944h-5.808l-1.273 4.104h-4.193L35.865.347h4.774l5.942 18.36h-4.459l-1.137-4.1zm-2.76-10.733h-.053l-2.201 7.627h4.166l-1.912-7.627zm13.035 7.812L45.635.35h4.987l2.976 7.1 2.76-7.104h4.881l-5.626 11.415v6.945h-4.352v-7.021zm-42.4 25.321H4.353v7.627H0v-18.36h4.353v7.311h4.512v-7.311h4.353v18.36H8.861v-7.627zm14.624-11.046c5.333 0 7.88 4.104 7.88 9.497s-2.547 9.497-7.88 9.497-7.853-4.104-7.853-9.497 2.52-9.497 7.854-9.497zm0 15.888c2.52 0 3.421-2.868 3.421-6.391s-.901-6.391-3.421-6.391-3.395 2.868-3.395 6.391.874 6.391 3.395 6.391zm25.153-11.735h-.053l-4.166 14.52h-2.866l-4.003-14.52h-.053v14.52h-3.98v-18.36h6.553l2.999 11.81h.053l3.239-11.81h6.261v18.36h-3.98l-.004-14.52zm6.823-3.84h10.693v3.211h-6.5v4.104h6.181V36.8h-6.181v4.628h6.82v3.211H55.461V26.274zM104.179.347h5.926c3.957 0 6.348 1.869 6.348 5.849 0 3.135-1.752 5.822-5.819 5.822h-2.099v6.712h-4.356V.347zm5.58 8.453c1.354 0 2.338-.923 2.338-2.634 0-1.816-.851-2.608-2.577-2.608h-1.144V8.8h1.383zm8.234-8.453h6.8c3.057 0 5.661 1.342 5.661 4.741 0 .765-.107 3.791-3.691 4.503v.053c1.353.158 1.885.897 2.577 3.083l1.912 6.003h-4.569l-1.433-4.926c-.719-2.502-1.304-2.502-2.897-2.502v7.428h-4.36V.347zm4.197 7.846h1.357c1.672 0 2.55-1.104 2.55-2.423 0-.765-.239-2.318-2.577-2.318h-1.327l-.003 4.741zM139.565.03c5.341 0 7.892 4.108 7.892 9.508s-2.551 9.508-7.892 9.508-7.865-4.108-7.865-9.508S134.225.03 139.565.03zm0 15.907c2.524 0 3.429-2.872 3.429-6.399s-.905-6.399-3.429-6.399-3.402 2.872-3.402 6.399.878 6.399 3.402 6.399zm12.058-12.274h-4.037V.347h12.434v3.32h-4.037V18.73h-4.356l-.004-15.067zM161.799.347h10.709v3.215H166V7.67h6.192v3.215H166v4.635h6.827v3.214h-11.024L161.799.347zm25.051 4.16c-.665-.369-1.779-1.055-3.771-1.055-2.923 0-4.782 2.344-4.782 6.056 0 3.584 2.098 6.007 4.862 6.007 2.125 0 3.375-.791 3.797-.976l.16 3.844c-.745.237-2.285.66-4.649.66-5.075 0-8.633-3.765-8.633-9.587 0-6.742 4.569-9.429 8.344-9.429 2.764 0 4.17.607 4.889.897l-.217 3.584zm5.58-.844h-4.037V.347h12.434v3.32h-4.037V18.73h-4.356l-.004-15.067zm-84.206 25.939h-4.045v-3.324h12.445v3.324h-4.04v15.082h-4.36V29.602zm19.371 7.435h-4.52v7.646h-4.36V26.278h4.36v7.33h4.52v-7.33h4.36v18.405h-4.36v-7.646zm7.481-10.759h10.72v3.218h-6.516v4.111h6.197v3.218h-6.197v4.639h6.835v3.218h-11.039V26.278zm19.71 0h5.105l5.398 12.76h.053v-12.76h3.832v18.405h-5.159l-5.344-13.314h-.053v13.314h-3.832V26.278zm26.126 10.759h-4.519v7.646h-4.361V26.278h4.361v7.33h4.519v-7.33h4.36v18.405h-4.36v-7.646zm17.589-7.013c-1.038-.528-2.501-.95-3.668-.95-1.41 0-2.475.633-2.475 2.005 0 3.35 7.314 1.794 7.314 8.332 0 3.478-2.794 5.589-6.489 5.589-2.262 0-4.204-.528-4.999-.765l.24-3.584c1.304.501 2.448 1.134 4.067 1.134 1.384 0 2.714-.686 2.714-2.19 0-3.557-7.313-1.82-7.313-8.385 0-.554.212-5.246 6.435-5.246 1.703 0 2.768.29 4.36.633l-.186 3.426z" fill="#fff"/><path d="M89.346 22.427L80.52 11.893v21.062l8.827-10.529z" fill="#fff500"/><path d="M249.583 4.066c-1.038-.528-2.501-.95-3.672-.95-1.41 0-2.475.633-2.475 2.005 0 3.354 7.322 1.794 7.322 8.34 0 3.486-2.794 5.596-6.497 5.596-2.261 0-4.208-.527-5.006-.765l.239-3.591c1.304.501 2.448 1.134 4.075 1.134 1.384 0 2.718-.686 2.718-2.19 0-3.565-7.321-1.82-7.321-8.392 0-.554.213-5.253 6.443-5.253 1.703 0 2.768.29 4.368.633l-.194 3.433zm13.677 10.556h-5.831l-1.277 4.119h-4.208L258.121.317h4.793l5.965 18.424h-4.474l-1.145-4.119zm-2.771-10.767h-.053l-2.209 7.654h4.182l-1.92-7.654zm7.124-3.538h4.687l3.277 13.435h.053L278.986.317h4.475l-5.623 18.424h-4.687L267.613.317zm18.36 0h10.731v3.218h-6.523v4.119h6.204v3.222h-6.204v4.647h6.843v3.218h-11.051V.317zm-48.071 25.931h4.367v15.097h6.151v3.328h-10.518V26.248zm12.818 0h4.367v18.424h-4.367V26.248zm6.496 0h4.687l3.277 13.435h.053l3.357-13.435h4.474l-5.619 18.424h-4.687l-5.542-18.424zm17.995 0h10.732v3.218h-6.524v4.119h6.204v3.222h-6.204v4.647h6.843v3.218h-11.051V26.248zm23.618 3.746c-1.037-.528-2.501-.95-3.676-.95-1.41 0-2.474.633-2.474 2.005 0 3.354 7.321 1.794 7.321 8.34 0 3.486-2.794 5.596-6.496 5.596-2.262 0-4.208-.528-5.007-.765l.24-3.591c1.304.501 2.448 1.134 4.075 1.134 1.383 0 2.714-.686 2.714-2.189 0-3.565-7.321-1.82-7.321-8.393 0-.554.212-5.253 6.443-5.253 1.703 0 2.767.29 4.368.633l-.187 3.433z" fill="#fff"/><path d="M223.609 22.427l-8.831-10.533v21.062l8.831-10.529z" fill="#fff500"/></svg>
